images/openlink.svg

<?xml version="1.0" encoding="UTF-8" standalone="no"?>
<svg width="15px" height="15px" viewBox="0 0 15 15" version="1.1" xmlns="http://www.w3.org/2000/svg" xmlns:xlink="http://www.w3.org/1999/xlink">
    <!-- Generator: Sketch 40.3 (33839) - http://www.bohemiancoding.com/sketch -->
    <title>openlink</title>
    <desc>Created with Sketch.</desc>
    <defs></defs>
    <g id="Page-1" stroke="none" stroke-width="1" fill="none" fill-rule="evenodd">
        <g id="openlink" fill="#000000">
            <g id="Capa_1">
                <g id="Group">
                    <path d="M14.0715845,0 L8.91533451,0 C8.40565141,0 7.99103873,0.414665493 7.99103873,0.924295775 C7.99103873,1.43392606 8.40565141,1.84859155 8.91533451,1.84859155 L11.8401761,1.84859155 L6.96121479,6.7275 C6.7865493,6.90205986 6.69042254,7.13413732 6.69042254,7.38110915 C6.69042254,7.62808099 6.78649648,7.86010563 6.96110915,8.03450704 C7.13572183,8.20927817 7.36774648,8.30545775 7.61471831,8.30545775 C7.86158451,8.30545775 8.09371479,8.20933099 8.26838028,8.03466549 L13.1472887,3.15570423 L13.1472887,6.08054577 C13.1472887,6.59017606 13.5619542,7.00484155 14.0715845,7.00484155 C14.5812148,7.00484155 14.9958803,6.59017606 14.9958803,6.08054577 L14.9958803,0.924295775 C14.9958803,0.414665493 14.5812148,0 14.0715845,0 L14.0715845,0 Z" id="Shape"></path>
                    <path d="M10.6234331,13.4113732 L1.58450704,13.4113732 L1.58450704,4.37244718 L8.38262324,4.37244718 L9.96713028,2.78794014 L0.792253521,2.78794014 C0.35471831,2.78794014 0,3.14265845 0,3.58019366 L0,14.2036268 C0,14.641162 0.35471831,14.9958803 0.792253521,14.9958803 L11.4156866,14.9958803 C11.8532218,14.9958803 12.2079401,14.641162 12.2079401,14.2036268 L12.2079401,5.02875 L10.6234331,6.61325704 L10.6234331,13.4113732 L10.6234331,13.4113732 Z" id="Shape"></path>
                </g>
            </g>
        </g>
    </g>
</svg>

<svg width="15" height="15" xmlns="http://www.w3.org/2000/svg"><g fill="#000" fill-rule="evenodd"><path d="M14.072 0H8.915a.925.925 0 0 0 0 1.849h2.925L6.961 6.727a.918.918 0 0 0-.27.654c0 .247.095.48.27.654a.918.918 0 0 0 .654.27.918.918 0 0 0 .653-.27l4.88-4.88v2.926a.925.925 0 0 0 1.848 0V.924A.925.925 0 0 0 14.072 0z"/><path d="M10.623 13.411H1.585V4.372h6.798l1.584-1.584H.792A.792.792 0 0 0 0 3.58v10.624c0 .437.355.792.792.792h10.624a.792.792 0 0 0 .792-.792V5.029l-1.585 1.584v6.798z"/></g></svg>
